dist/img/svg/media__item__logo--3--mob.svg

<svg width="123" height="16" viewBox="0 0 123 16" fill="none" xmlns="http://www.w3.org/2000/svg">
<g clip-path="url(#clip0_7202_31325)">
<path d="M21.1296 16.0005C23.5718 16.0005 25.257 14.8875 26.3236 12.6304H24.0513C23.7881 13.2179 23.4173 13.635 22.9226 13.8672C22.5209 14.0683 21.9332 14.1453 21.1602 14.1453C19.1039 14.1453 17.8984 13.1256 17.5582 11.1312L17.4966 10.7599H26.8335C26.8182 9.61604 26.679 8.68846 26.4317 8.00844C26.0143 6.84907 25.3189 5.92134 24.3913 5.27242C23.4481 4.62307 22.3353 4.2832 21.0985 4.2832C19.46 4.2832 18.115 4.85515 17.002 5.99904C15.9046 7.1273 15.3633 8.53423 15.3633 10.1573C15.3633 11.8578 15.9044 13.2491 16.9709 14.3623C18.0379 15.4595 19.4441 16.0005 21.1296 16.0005ZM17.5121 9.26055H17.5275L17.6356 8.87395C18.115 7.08085 19.305 6.16904 21.1294 6.16904C23.0153 6.16904 24.1747 7.08085 24.5765 8.88957L24.6539 9.27603H17.5121V9.26055Z" fill="#2A2A2A"/>
<path d="M14.9339 13.7382H13.3923L9.01487 0H5.87627L1.52088 13.7382H0V15.6442H14.9341L14.9339 13.7382ZM3.9254 13.7382L7.42198 1.97376L10.9673 13.7382H3.9254Z" fill="#2A2A2A"/>
<path d="M28.8862 15.6749L31.6997 7.06466L34.4978 15.6749H36.7856L32.8126 4.40576H30.6487L26.6602 15.6749H28.8862Z" fill="#2A2A2A"/>
<path d="M42.5073 4.40576C40.8378 4.40576 39.4618 4.93141 38.3332 6.01322C37.2046 7.09562 36.6484 8.44033 36.6484 10.0945C36.6484 11.8105 37.1738 13.1706 38.287 14.2528C39.3845 15.3503 40.7758 15.8758 42.4918 15.8758C44.2079 15.8758 45.6142 15.3346 46.6967 14.2681C47.7943 13.1859 48.3354 11.8101 48.3354 10.0942C48.3661 8.44004 47.8096 7.09533 46.6812 6.01293C45.5525 4.9314 44.1768 4.40576 42.5073 4.40576ZM45.2124 12.9388C44.5323 13.681 43.6358 14.0521 42.5225 14.0521C41.3941 14.0521 40.4821 13.681 39.8174 12.9388C39.1527 12.2124 38.8127 11.2694 38.8127 10.1563C38.8127 9.0282 39.1526 8.08469 39.8174 7.35837C40.4976 6.61613 41.3942 6.22953 42.5225 6.22953C43.6509 6.22953 44.5784 6.60079 45.2278 7.34289C45.877 8.06936 46.217 9.01228 46.217 10.1563C46.2021 11.2849 45.8617 12.2124 45.2124 12.9388Z" fill="#2A2A2A"/>
<path d="M65.1289 4.40576C63.459 4.40576 62.083 4.93141 60.9544 6.01322C59.8262 7.09562 59.2695 8.44033 59.2695 10.0945C59.2695 11.8105 59.7955 13.1706 60.9084 14.2528C62.0059 15.3503 63.3972 15.8758 65.1131 15.8758C66.8291 15.8758 68.2358 15.3346 69.318 14.2681C70.4154 13.1859 70.9565 11.8101 70.9565 10.0942C70.9873 8.44004 70.4308 7.09533 69.3027 6.01293C68.174 4.9314 66.7981 4.40576 65.1289 4.40576ZM67.8335 12.9388C67.1536 13.681 66.257 14.0521 65.1439 14.0521C64.0155 14.0521 63.1032 13.681 62.4389 12.9388C61.774 12.2124 61.4336 11.2694 61.4336 10.1563C61.4336 9.0282 61.7738 8.08469 62.4389 7.35837C63.1191 6.61613 64.0155 6.22953 65.1439 6.22953C66.2723 6.22953 67.1998 6.60079 67.849 7.34289C68.4982 8.06936 68.8384 9.01228 68.8384 10.1563C68.8238 11.2849 68.483 12.2124 67.8335 12.9388Z" fill="#2A2A2A"/>
<path d="M56.654 9.57773C57.0547 9.03383 57.2542 8.39003 57.2542 7.62179C57.2711 6.70107 56.9543 5.92158 56.3124 5.30626C55.6762 4.6962 54.91 4.39941 53.971 4.39941H50.4741V4.40497H49.5547V15.6433H51.5021V15.6502H54.9913C55.9444 15.6502 56.7387 15.3439 57.3522 14.7397C57.9777 14.1226 58.2823 13.3554 58.2823 12.398C58.2992 11.4774 57.9826 10.6984 57.3405 10.0826C57.1273 9.87831 56.8979 9.71239 56.654 9.57773ZM53.9784 6.11875C54.4214 6.11875 54.767 6.25677 55.0064 6.53062C55.261 6.81499 55.3899 7.18844 55.3899 7.63887C55.3838 8.08784 55.2529 8.45823 55.0023 8.7388C54.7458 9.01878 54.411 9.15476 53.9784 9.15476H51.5019V6.11861H53.9784V6.11875ZM56.0302 13.5158C55.774 13.7952 55.439 13.9316 55.0065 13.9316H51.5021V10.8954H55.0065C55.4495 10.8954 55.7949 11.0336 56.0345 11.3074C56.289 11.5918 56.418 11.9656 56.418 12.4154C56.4117 12.8644 56.2809 13.2348 56.0302 13.5158Z" fill="#2A2A2A"/>
<path d="M121.393 5.4722C120.676 4.76618 119.746 4.4082 118.627 4.4082H115.252H114.532H113.297V15.6466H115.252V11.9821H118.636C119.738 11.9821 120.635 11.6352 121.38 10.921C122.129 10.2027 122.499 9.29208 122.479 8.21333C122.479 7.09003 122.124 6.19327 121.393 5.4722ZM120.02 9.64991C119.697 10.0202 119.234 10.2075 118.645 10.2075H115.252V6.1829H118.645C119.22 6.1829 119.667 6.36619 120.013 6.74389C120.346 7.11588 120.519 7.60312 120.527 8.19273C120.527 8.78308 120.356 9.27367 120.02 9.64991Z" fill="#2A2A2A"/>
<path d="M79.4999 4.40576L74.3734 12.5317V4.40576H72.4102V15.6443H74.3734H74.5592L79.6909 7.50954V15.6443H81.6491V4.40576H79.6909H79.4999Z" fill="#2A2A2A"/>
<path d="M94.2008 12.8648L91.113 4.40674H87.9844V15.6227H89.9748C89.9748 15.6227 89.9788 8.26488 89.9748 7.61304L93.1638 15.6445H95.226L98.3761 7.6665C98.3471 8.31147 98.3761 15.6227 98.3761 15.6227H100.328V4.40674H97.2763L94.2008 12.8648Z" fill="#2A2A2A"/>
<path d="M79.926 1.9751H74.1445V3.10351H79.926V1.9751Z" fill="#2A2A2A"/>
<path d="M79.926 0.0400391H74.1445V1.15326H79.926V0.0400391Z" fill="#2A2A2A"/>
<path d="M109.281 4.40576L104.155 12.5317V4.40576H102.191V15.6443H104.155H104.34L109.472 7.50954V15.6443H111.43V4.40576H109.472H109.281Z" fill="#2A2A2A"/>
</g>
<defs>
<clipPath id="clip0_7202_31325">
<rect width="122.476" height="16" fill="white"/>
</clipPath>
</defs>
</svg>

<svg width="123" height="16" viewBox="0 0 123 16" fill="none" xmlns="http://www.w3.org/2000/svg"><g clip-path="url(#clip0_7202_31325)" fill="#2A2A2A"><path d="M21.13 16c2.442 0 4.127-1.113 5.194-3.37H24.05c-.263.588-.634 1.005-1.128 1.237-.402.201-.99.278-1.763.278-2.056 0-3.262-1.02-3.602-3.014l-.061-.371h9.337c-.016-1.144-.155-2.072-.402-2.752-.418-1.159-1.113-2.087-2.04-2.736-.944-.649-2.057-.989-3.293-.989-1.639 0-2.984.572-4.097 1.716-1.097 1.128-1.639 2.535-1.639 4.158 0 1.7.541 3.092 1.608 4.205C18.038 15.46 19.444 16 21.13 16zm-3.618-6.74h.015l.109-.386c.479-1.793 1.669-2.705 3.493-2.705 1.886 0 3.046.912 3.447 2.72l.078.387h-7.142v-.015zm-2.578 4.478h-1.542L9.015 0H5.876L1.521 13.738H0v1.906h14.934v-1.906zm-11.009 0L7.422 1.974l3.545 11.764H3.925zm24.961 1.937l2.814-8.61 2.798 8.61h2.288l-3.973-11.27h-2.164l-3.989 11.27h2.226zM42.507 4.406c-1.67 0-3.045.525-4.174 1.607-1.128 1.083-1.685 2.427-1.685 4.082 0 1.715.526 3.076 1.639 4.158 1.098 1.097 2.489 1.623 4.205 1.623 1.716 0 3.122-.541 4.205-1.608 1.097-1.082 1.638-2.458 1.638-4.174.031-1.654-.525-2.999-1.654-4.081-1.128-1.082-2.504-1.607-4.174-1.607zm2.705 8.533c-.68.742-1.576 1.113-2.69 1.113-1.128 0-2.04-.371-2.705-1.113-.664-.727-1.004-1.67-1.004-2.783 0-1.128.34-2.071 1.004-2.798.68-.742 1.577-1.128 2.706-1.128 1.128 0 2.055.37 2.705 1.113.649.726.989 1.67.989 2.813-.015 1.129-.355 2.056-1.005 2.783zm19.917-8.533c-1.67 0-3.046.525-4.175 1.607-1.128 1.083-1.684 2.427-1.684 4.082 0 1.715.525 3.076 1.638 4.158 1.098 1.097 2.49 1.623 4.205 1.623 1.716 0 3.123-.541 4.205-1.608 1.097-1.082 1.639-2.458 1.639-4.174.03-1.654-.526-2.999-1.654-4.081-1.129-1.082-2.505-1.607-4.174-1.607zm2.704 8.533c-.68.742-1.576 1.113-2.69 1.113-1.127 0-2.04-.371-2.704-1.113-.665-.727-1.005-1.67-1.005-2.783 0-1.128.34-2.071 1.005-2.798.68-.742 1.577-1.128 2.705-1.128 1.128 0 2.056.37 2.705 1.113.65.726.99 1.67.99 2.813-.015 1.129-.356 2.056-1.005 2.783zM56.654 9.578c.4-.544.6-1.188.6-1.956.017-.92-.3-1.7-.942-2.316-.636-.61-1.402-.907-2.341-.907h-3.497v.006h-.92v11.238h1.948v.007h3.49c.952 0 1.747-.306 2.36-.91.626-.617.93-1.385.93-2.342.017-.92-.3-1.7-.941-2.315a3.272 3.272 0 00-.687-.505zm-2.676-3.46c.443 0 .789.139 1.028.413.255.284.384.657.384 1.108-.006.449-.137.82-.388 1.1-.256.28-.591.416-1.024.416h-2.476V6.119h2.476zm2.052 7.398c-.256.28-.591.416-1.023.416h-3.505v-3.037h3.505c.443 0 .788.139 1.028.412.254.285.383.659.383 1.108-.006.45-.137.82-.388 1.1zm65.363-8.044c-.717-.706-1.647-1.064-2.766-1.064h-5.33v11.239h1.955v-3.665h3.384c1.102 0 1.999-.347 2.744-1.061.749-.718 1.119-1.629 1.099-2.708 0-1.123-.355-2.02-1.086-2.74zM120.02 9.65c-.323.37-.786.557-1.375.557h-3.393V6.183h3.393c.575 0 1.022.183 1.368.56.333.373.506.86.514 1.45 0 .59-.171 1.08-.507 1.457zM79.5 4.406l-5.127 8.126V4.406H72.41v11.238h2.149l5.132-8.134v8.134h1.958V4.406H79.5zm14.7 8.459l-3.087-8.458h-3.129v11.216h1.99s.005-7.358 0-8.01l3.19 8.032h2.062l3.15-7.978c-.029.644 0 7.956 0 7.956h1.952V4.407h-3.052l-3.075 8.458zM79.926 1.975h-5.782v1.129h5.782V1.975zm0-1.935h-5.782v1.113h5.782V.04zm29.355 4.366l-5.126 8.126V4.406h-1.964v11.238h2.149l5.132-8.134v8.134h1.958V4.406h-2.149z"/></g><defs><clipPath id="clip0_7202_31325"><path fill="#fff" d="M0 0h122.476v16H0z"/></clipPath></defs></svg>
